X:1
T:Love Will Ye Marry Me
R:barndance
M:4/4
L:1/8
K:D
|:~A,2A,B, DEFE|DB,~B,2 GB,DB,|~A,2A,B, DEFG|1 (3ABA FD ECDB,:|2 (3ABA FD ECDF|]
|~A2AG FGAd|~B2BA BcdB|~A2AG FGAF|GEFD ~E2DF|
|~A2AG FGAd|~B2BA BcdB|AcdA (3Bcd AF|DEFD ~E2DB,|